!!!COM: Anon.
!!!OTL: Na no Ha
!!!OTC: Japanese Popular Music: A Collection of The Popular Music of Japan Rendered in to the Staff notation.
!!!CNT: Nippon, Japanese
!!!TXO: Nippon, Japan
!!!OCY: Nippon, Japan
!!!ODT: <1892///
!!!PSR: S. Miki & Co.
!!!PSP: Osaka, Nippon
!!!PDT: 1892///
!!!PPE: Y Nagai & K. Kobatake
!!!PED: Revised Second Edition
!!!PPG: page 88-89
!! Moderato
**kern	**silbe
*ICstr	*Lnippon
*ICvox	*
*Ikoto	*
*Ivox	*
*clefG2	*
*k[]	*
*M4/4	*
=1-	=1-
2B	.
(4e	.
4B)	.
=2	=2
2a	.
4a	.
4b	.
=3	=3
2cc	.
2b	.
=4	=4
(4cc	.
4b)	.
2a	.
=5	=5
2f	.
2f	.
=6	=6
4r	.
4f	.
2f	.
=7	=7
(4e	.
4d)	.
4e	.
4e	.
=8	=8
2e	.
2f	.
=9	=9
4a	.
4f	.
4e	.
(8d	.
8e	.
=10	=10
4f)	.
8a	.
8f	.
4e	.
8c	.
8B	.
=11	=11
4a	.
4aa	.
8aa	.
8aa	.
4ee	.
=12	=12
8.ee	.
16cc	.
4b	.
4.b	.
8e	.
=13	=13
4B	.
4B	.
4b	.
4e	.
=14	=14
2B 2b	.
2b	.
=15	=15
(4cc	.
4b)	.
(4a	.
4f)	.
=16	=16
2f	.
2f	.
=17	=17
(8.b	.
16a)	.
4f	.
4e	.
4d	.
=18	=18
4E	.
4e	.
2f	.
=19	=19
4a	.
4f	.
4e	.
(8d	.
8e)	.
=20	=20
4f	.
8a	.
8f	.
4e	.
8c	.
8B	.
=21	=21
4a	.
4aa	.
8aa	.
8aa	.
4ee	.
=22	=22
8.ee	.
16cc	.
4b	.
4.b	.
8e	.
=23	=23
4B	.
8.B	.
16a	.
4b	.
4e	.
=24	=24
2B 2b	.
2b	.
=25	=25
(4cc	.
4b)	.
(4a	.
4f)	.
=26	=26
2f	.
(8.b	.
16a	.
4f)	.
=27	=27
2f	.
4f	.
(4e	.
=28	=28
4f)	.
2d	.
(4e	.
=29	=29
4f)	.
4r	.
(4f	.
4e)	.
=30	=30
4f	.
4a	.
4f	.
4e	.
=31	=31
4r	.
4f	.
4e	.
(8d	.
8e	.
=32	=32
4f)	.
4e	.
4c	.
8C	.
8B	.
=33	=33
4a	.
8r	.
8cc	.
8.a	.
16a	.
8r	.
8cc	.
=34	=34
8a	.
8a	.
8r	.
8cc	.
8a	.
8b	.
8a	.
8f	.
=35	=35
4f	.
8r	.
8a	.
4f	.
4e	.
=36	=36
8e	.
8b	.
4cc	.
8b	.
8a	.
8f	.
8e	.
=37	=37
8d	.
4d	.
8e	.
8f	.
8f	.
8r	.
8f	.
=38	=38
8r	.
8f	.
8E	.
8d	.
4.d	.
8f	.
=39	=39
8d	.
8d	.
8r	.
8f	.
8d	.
8d	.
8r	.
8f	.
=40	=40
8d	.
8e	.
8.f	.
16a	.
4b	.
4e	.
=41	=41
4.b	.
8a	.
4b	.
8ee	.
8cc	.
=42	=42
(8b	.
8a)	.
4f	.
4f	.
4a	.
=43	=43
8f	.
8e	.
8a	.
8b	.
8cc	.
8r	.
8b	.
8a	.
=44	=44
8f	.
8f	.
qb	.
4f	.
2e	.
=45	=45
4f	.
4e	.
4f	.
4e	.
=46	=46
8a	.
8f	.
8.e	.
16c	.
4B	.
8.e	.
16c	.
=47	=47
4B	.
2B	.
4cc	.
=48	=48
(8.b	.
16a)	.
4f	.
2e	.
=49	=49
2d;	.
2e	.
==	==
*-	*-
!!!ENC: David Huron
!!!RDT: 2000/1/30
!!!EEV: Release 1.0
!!!ELF: 24/28
!!!YER: 2000/2/1
!!!YEM: Copyright David Huron, 2000
!!!YEN: United States of America
